fs/leaf_three_20_filled.svg

<svg viewBox="0 0 20 20" fill="none" xmlns="http://www.w3.org/2000/svg" height="1em" width="1em">
  <path d="M10.9999 2C9.36406 2 7.91172 2.78555 6.99951 4C9.24074 4 11.1953 5.22884 12.2255 7.04952C12.4791 7.01685 12.7376 7 13 7H15.9999V3.33505C15.9999 2.59772 15.4022 2 14.6648 2H10.9999ZM7.33746 14.9888C7.22594 14.9962 7.11341 15 7 15C4.23858 15 2 12.7614 2 10V6.33505C2 5.59772 2.59772 5 3.33505 5H7C8.75691 5 10.3022 5.90616 11.1939 7.2766C9.72989 7.73815 8.50822 8.74592 7.76795 10.0609L6.35355 8.64649C6.15829 8.45123 5.84171 8.45123 5.64645 8.64649C5.45118 8.84176 5.45118 9.15834 5.64645 9.3536L7.32882 11.036C7.11575 11.6513 7 12.3122 7 13C7 13.6971 7.11888 14.3664 7.33746 14.9888ZM8 13C8 10.2386 10.2386 8 13 8H16.6649C17.4023 8 18 8.59772 18 9.33505V13C18 15.7614 15.7614 18 13 18C11.7994 18 10.6976 17.5768 9.83568 16.8715L8.85363 17.8536C8.65837 18.0488 8.34178 18.0488 8.14652 17.8536C7.95126 17.6583 7.95126 17.3417 8.14652 17.1464L9.12856 16.1644C8.4232 15.3025 8 14.2007 8 13ZM10.5472 16.16L13.8536 12.8536C14.0489 12.6583 14.0489 12.3417 13.8536 12.1464C13.6584 11.9512 13.3418 11.9512 13.1465 12.1464L9.84009 15.4529C10.0454 15.717 10.2831 15.9547 10.5472 16.16Z" fill="#212121"/>
</svg>

<svg viewBox="0 0 20 20" fill="none" xmlns="http://www.w3.org/2000/svg" height="1em" width="1em">
  <path d="M11 2a4.992 4.992 0 0 0-4 2 5.999 5.999 0 0 1 5.226 3.05A6.06 6.06 0 0 1 13 7h3V3.335C16 2.598 15.402 2 14.665 2H11ZM7.337 14.989A5 5 0 0 1 2 10V6.335C2 5.598 2.598 5 3.335 5H7c1.757 0 3.302.906 4.194 2.277a6.017 6.017 0 0 0-3.426 2.784L6.354 8.646a.5.5 0 1 0-.708.708l1.683 1.682A5.992 5.992 0 0 0 7 13c0 .697.119 1.366.337 1.989ZM8 13a5 5 0 0 1 5-5h3.665C17.402 8 18 8.598 18 9.335V13a5 5 0 0 1-8.164 3.872l-.982.982a.5.5 0 0 1-.707-.708l.982-.982A4.98 4.98 0 0 1 8 13Zm2.547 3.16 3.307-3.306a.5.5 0 0 0-.707-.708L9.84 15.453c.205.264.443.502.707.707Z" fill="#212121"/>
</svg>
